X:1
T:Title
%%score { 1 | 2 }
L:1/8
M:6/8
K:C
V:1 treble nm="Grand Piano"
V:2 bass 
V:1
 z3 z2[Q:1/4=100] [CE]/[DF]/ | [EG]>[FA][EG] [EG][CE][Ec] | [Ac]>[GB][FA] [EG]2 [EG]/[EG]/ | %3
 [EG][DF][CE] [DF][EG][DF] | [CE]3- [CE]2 [CE]/[DF]/ | [EG]>[FA][EG] [EG][CE][Ec] | %6
 [Ac]>[GB][FA] [EG]2 [Ec] | BAB [^Fd][Fc][FA] | G6 | d2 d/d/ dcB | [Ec][Ec][Fc] [Ec]2 [EG]/[EG]/ | %11
 AAA [^FA][Fd][Ac] | [GB]3 [FA]3 | [EG]2 [FA]/[DB]/ [Ec][Fd][Ge] |[M:13/16] ABcd-<d[Af]3/2 | %15
[M:3/4] e>d c[FB] [FA][FB] |[M:5/8] [Ec]-[Ec]- [Ec]3 |] %17
V:2
 z3 z2 [C,G,] | [C,C]>[C,C][C,C] [C,C][C,G,][C,C] | [F,C]>[F,C][F,C] [C,C]2 [C,C] | %3
 [C,C][C,G,][C,G,] [G,,G,][G,,G,][G,,G,] | [C,G,]3- [C,G,]2 [C,G,] | %5
 [C,C]>[C,C][C,C] [C,C][C,G,][C,C] | [F,C]>[F,C][F,C] [C,C]2 [C,G,] | %7
 [D,G,D][D,^F,D][D,G,D] [D,A,][D,A,][D,C] | [G,B,]6 | %9
 [G,B,G]2 [G,B,G]/[G,B,G]/ [G,B,G][G,CE][G,DF] | [C,C][C,G,][C,A,] [C,G,]2 [C,C]/[C,C]/ | %11
 [F,CF][F,CF][F,CF] [D,C][D,A,][D,D] | [G,D]3 [G,B,]3 | [C,C]2 [C,G,]/[C,G,]/ [C,G,][C,C][C,C] | %14
[M:13/16] [F,CF][F,CF][F,A,F][F,A,F]-<[F,A,F][D,A,]3/2 | %15
[M:3/4][K:treble] [G,CG]>[G,B,F][K:bass] [G,CE][G,,G,] [G,,G,][G,,G,] | %16
[M:5/8] [C,G,]-[C,G,]- [C,G,]3 |] %17

